X: 04053
T: MACELROY'S REEL
C: Bob McQuillen 4 Feb'79
B: Bob's Note Book 04 #53
R: reel
Z: 2020 John Chambers <jc:trillian.mit.edu>
M: C
L: 1/8
K: D
|:D2DF ABde | fdec B2A2 | fedf edBd | AFDF EDB,A, |
| D2DF ABde | fdBd A2de | fedf edBd | AFDF E2D2  :|
|:f2fa fedf | edBA B2dB | ABAF DEFD | EFED B,2A,2 |
| f2fa fedf | edBA B2dB | ABAF DFAB | defd e2d2  :|
%%begintext align
%% For Kevin MacElroy of
%% Portsmoutn, N.H., a really
%% fine musician in the old
%% tradition. With very Best
%% Wishes always, Kevin.
%%endtext

%%sep 1 1 500

%%sep 1 1 500

